!!!!SEGMENT: pl-cz--iii-370--001-008_krogulski-jozef-wladyslaw--msza-c-agnus.krn
!!!cenid: 18xx:945
!!!COM: Krogulski, Józef Władysław
!!!COM-rismID: pe30001797
!!!CDT: 1815/10/04-1842/01/09
!!!CNT: Polish
!!!OPR: Msza C
!!!OTL: Agnus
!!!OMV: 008
!!!PDT:
!!!AGN: Sacred; Mass
!!!SMS-siglum: PL-CZ
!!!SMS-shelfmark: III-370
!!!SMS-shelfwork: 001-008 M
!!!SMS-variant:
!!!SMS-altvar:
!!!NIFC-rismSourceID: 300000646
!!!NIFC-rismChildID: 300000646
!!!NIFC-islandoraID: pl-cz:38094
!!!URL-pdf-islandora: https://repozytorium.nifc.pl/islandora/object/pl-cz%3A38094/datastream/PDF/view
!!!URL-scan: https://polish.musicsources.pl/pl/lokalizacje/galeria/rekopisy/6918/1 @EN{Scan on Polish Music Sources Website} @PL{Skany w portalu Dziedzictwo Muzyki Polskiej w otwartym dostępie}
!!!IIIF:
!!!ONB-nifc: UWAGA: części Mszy: Kyrie, Gloria, Andante przed Ewangelią, Credo, Offertorium, Sanctus, Benedictus, Agnus, Na Benedykcyią
!!!AIN: 1 bass 1 organ 2 soprn
!!!key: e
**kern	**kern	**dynam	**kern	**dynam	**text	**mod-text	**kern	**dynam	**text	**mod-text	**kern	**dynam	**text	**mod-text
*	*	*	*group1	*group1	*group1	*group1	*group1	*group1	*group1	*group1	*group1	*group1	*group1	*group1
*part4	*part4	*part4	*part3	*part3	*part3	*part3	*part2	*part2	*part2	*part2	*part1	*part1	*part1	*part1
*staff5	*staff4	*	*staff3	*	*staff3	*staff3	*staff2	*	*staff2	*staff2	*staff1	*	*staff1	*staff1
*I"Organ	*I"Organ	*	*I"Bas	*	*	*	*I"Spiew Drugi	*	*	*	*I"Spiew Pierwszy	*	*	*
*mI"Organo	*mI"Organo	*	*mI"Basso	*	*	*	*mI"Voce II	*	*	*	*mI"Voce I	*	*	*
*Iorgan	*Iorgan	*	*Ibass	*	*	*	*Isoprn	*	*	*	*Isoprn	*	*	*
*ICklav	*ICklav	*	*ICvox	*	*	*	*ICvox	*	*	*	*ICvox	*	*	*
*IGacmp	*IGacmp	*	*IGcoro	*	*	*	*IGcoro	*	*	*	*IGcoro	*	*	*
*I'org	*	*	*I'B	*	*	*	*I'V 2	*	*	*	*I'V 1	*	*	*
*clefF4	*clefG2	*	*clefF4	*	*	*	*clefG2	*	*	*	*clefG2	*	*	*
*k[f#]	*k[f#]	*	*k[f#]	*	*	*	*k[f#]	*	*	*	*k[f#]	*	*	*
*e:	*e:	*	*e:	*	*	*	*e:	*	*	*	*e:	*	*	*
*M4/4	*M4/4	*	*M4/4	*	*	*	*M4/4	*	*	*	*M4/4	*	*	*
*met(c)	*met(c)	*	*met(c)	*	*	*	*met(c)	*	*	*	*met(c)	*	*	*
!!!OMD:
!!!OMD-mod: Largo
!LO:TX:t=P:problem=all\right&colon; global	!LO:TX:t=P:problem=all\right&colon; global	!	!LO:TX:t=P:problem=all\right&colon; global	!	!	!	!LO:TX:t=P:problem=all\right&colon; global	!	!	!	!LO:TX:t=P:problem=all\right&colon; global	!	!	!
!	!LO:TX:a:B:t=Largo:mod=	!LO:DY:rj	!	!LO:DY:a:rj	!	!	!	!LO:DY:a:rj	!	!	!	!LO:DY:b:rj	!	!
4E/ 4EE/	4b/ 4g/	p	4E\	p	pa-	Pa-	4g/	p	pa-	Pa-	4b\	p	pa-	Pa-
=1	=1	=1	=1	=1	=1	=1	=1	=1	=1	=1	=1	=1	=1	=1
*	*2\right	*	*2\right	*	*	*	*2\right	*	*	*	*2\right	*	*	*
[>1E [<1EE	2b/ 2g/	.	2.E\	.	-daj-	-daj-	(<2g/	.	-daj-	-daj-	(>2b\	.	-daj-	-daj-
.	4dd\ 4b\	.	.	.	.	.	4b/)	.	.	.	4dd\)	.	.	.
.	4cc\ 4a\	.	4E\	.	-cie	-cie	4a/	.	-my	-cie	4cc\	.	-cie	-cie
=2	=2	=2	=2	=2	=2	=2	=2	=2	=2	=2	=2	=2	=2	=2
1E] 1EE]	1b 1g	.	2E\	.	lu-	lu-	2g/	.	lu-	lu-	2b\	.	lu-	lu-
.	.	.	8E\	.	-dy	-dy,	8g/	.	-dy	-dy,	8b\	.	-dy	-dy,
.	.	.	8r	.	.	.	8r	.	.	.	8r	.	.	.
.	.	.	4E\	.	u-	u-	4g/	.	u-	u-	4b\	.	u-	u-
=3	=3	=3	=3	=3	=3	=3	=3	=3	=3	=3	=3	=3	=3	=3
1AA	4cc\ 4a\	.	2AA/	.	-niż-	-niż-	(<4a/	.	-niż-	-niż-	(>4cc\	.	-niż-	-niż-
.	4ee\ 4cc\	.	.	.	.	.	4cc/)	.	.	.	4ee\)	.	.	.
.	4dd\ 4b\	.	4AA/	.	-cie	-cie	4b/	.	-cie	-cie	4dd\	.	-cie	-cie
.	4cc\ 4a\	.	4AA/	.	się	się	4a/	.	się	się	4cc\	.	się	się
=4	=4	=4	=4	=4	=4	=4	=4	=4	=4	=4	=4	=4	=4	=4
!	!	!	!	!	!	!	!LO:SIC:s=(4.g/:v	!	!	!	!	!	!	!
2BB/	4.b/ 4.g/	.	2BB/	.	tro-	tro-	4.g/	.	tro-	tro-	(>4.b\	.	tro-	tro-
!	!	!	!	!	!	!	!LO:SIC:s=8f#/):v	!	!	!	!	!	!	!
.	8a/ 8f#/	.	.	.	.	.	8f#/	.	.	.	8a\)	.	.	.
16E\	8r	.	16E\	.	-ny	-ny	16e/	.	-ny	-ny	16g/	.	-ny	-ny
16r	.	.	16r	.	.	.	16r	.	.	.	16r	.	.	.
8E\L	8g/L 8e/	.	8E\	.	przed	przed	8e/	.	przed	przed	8g/	.	przed	przed
!	!	!	!	!	!	!	!LO:LB:g=original	!	!	!	!	!	!	!
8E\	8g/ 8e/	.	8E\	.	ſmier-	śmier-	8e/	.	ſmier-	śmier-	8g/	.	ſmier-	śmier-
8E\J	8g/J 8e/	.	8E\	.	-tel-	-tel-	8e/	.	-tel-	-tel-	8g/	.	-tel-	-tel-
!	!	!	!LO:LB:g=original	!	!	!	!	!	!	!	!	!	!	!
=5	=5	=5	=5	=5	=5	=5	=5	=5	=5	=5	=5	=5	=5	=5
*	*^	*	*	*	*	*	*	*	*	*	*	*	*	*
2AA/	2cc/	1e	.	(>2AA/	.	-ni-	-ni-	2.e/	.	-ni-	-ni-	(>2cc\	.	-ni-	-ni-
!	!	!	!	!	!	!	!	!	!	!	!	!LO:LB:g=original	!	!	!
4BB/	4b/	.	.	4BB/)	.	.	.	.	.	.	.	4b\)	.	.	.
4C/	4g/	.	.	4C/	.	-kow	-ków	4e/	.	-kow	-ków	4a\	.	-kow	-ków
*	*v	*v	*	*	*	*	*	*	*	*	*	*	*	*	*
=6	=6	=6	=6	=6	=6	=6	=6	=6	=6	=6	=6	=6	=6	=6
4D/	2f#/ 2d/	.	4D/	.	o-	o-	4d/	.	o-	o-	4f#/	.	o-	o-
4C/	.	.	4C/	.	-kiem	-kiem	4d/	.	-kiem	-kiem	4f#/	.	-kiem	-kiem
4BB/	4g/ 4e/	.	4BB/	.	u-	u-	4e/	.	u-	u-	4g/	.	u-	u-
!	!	!	!	!	!	!	!LO:SIC:s=4f#/:v	!	!	!	!	!	!	!
4AA/	4a/ 4f#/	.	4AA/	.	-ta-	-ta-	4e/	.	-ta-	-ta-	4a/	.	-ta-	-ta-
=7	=7	=7	=7	=7	=7	=7	=7	=7	=7	=7	=7	=7	=7	=7
!	!	!	!LO:SIC:s=(1GG:v	!	!	!	!	!	!	!	!	!	!	!
1GG	4b\ 4g\	.	1GG	.	-jo-	-jo-	(<4g/	.	-jo-	-jo-	(>4b\	.	-jo-	-jo-
.	4cc\ 4a\	.	.	.	.	.	4a/	.	.	.	4cc\	.	.	.
.	4dd\ 4b\	.	.	.	.	.	4b/	.	.	.	4dd\	.	.	.
!	!	!	!	!	!	!	!	!	!	!	!LO:SIC:s=4ee\:v	!	!	!
.	4ee\ 4cc\	.	.	.	.	.	4cc/	.	.	.	4ee\)	.	.	.
=8	=8	=8	=8	=8	=8	=8	=8	=8	=8	=8	=8	=8	=8	=8
*2\right	*	*	*	*	*	*	*	*	*	*	*	*	*	*
!	!	!	!	!	!	!	!LO:SIC:s=4.b/:v	!	!	!	!	!	!	!
!	!	!	!LO:SIC:s=2D\):v	!	!	!	!	!	!	!	!	!	!	!
2D\	4.dd\ 4.b\	.	2D\	.	.	.	4.b/)	.	.	.	4.dd\	.	.	.
!	!	!	!	!	!	!	!LO:SIC:s=8a/):v	!	!	!	!	!	!	!
!	!	!	!	!	!	!	!	!	!	!	!LO:SIC:s=8cc\):v	!	!	!
.	8cc\ 8a\	.	.	.	.	.	8a/	.	.	.	8cc\	.	.	.
*tremolo	*tremolo	*	*	*	*	*	*	*	*	*	*	*	*	*
8G\L	8b\ 8g\L	.	16G\	.	-ny	-ny,	16g/	.	-ny	-ny,	16b\	.	-ny	-ny,
.	.	.	16r	.	.	.	16r	.	.	.	16r	.	.	.
8G\	8b\ 8g\	.	8G\	.	przed	przed	8g/	.	przed	przed	8b\	.	przed	przed
8G\	8b\ 8g\	.	8G\	.	ſmier-	śmier-	8g/	.	ſmier-	śmier-	8b\	.	ſmier-	śmier-
8G\J	8b\ 8g\J	.	8G\	.	-tel-	-tel-	8g/	.	-tel-	-tel-	8b\	.	-tel-	-tel-
*Xtremolo	*Xtremolo	*	*	*	*	*	*	*	*	*	*	*	*	*
!LO:LB:g=original	!LO:LB:g=original	!	!	!	!	!	!LO:LB:g=original	!	!	!	!	!	!	!
=9	=9	=9	=9	=9	=9	=9	=9	=9	=9	=9	=9	=9	=9	=9
*	*^	*	*	*	*	*	*	*	*	*	*	*	*	*
2.E\	4cc/	1g	.	2.E\	.	-ni-	-ni-	2.g/	.	-ni-	-ni-	(>4cc\	.	-ni-	-ni-
.	4b/	.	.	.	.	.	.	.	.	.	.	4b\	.	.	.
!	!	!	!	!	!	!	!	!	!	!	!	!LO:SIC:s=4cc\):v	!	!	!
.	4cc/	.	.	.	.	.	.	.	.	.	.	4cc\	.	.	.
!	!	!	!	!	!	!	!	!	!	!	!	!LO:SIC:s=4dd\:v	!	!	!
4D\	4dd/	.	.	4D\	.	-kow	-ków	4g/	.	-kow	-ków	4dd\)	.	-kow	-ków
!	!	!	!	!	!	!	!	!	!	!	!	!LO:LB:g=original	!	!	!
=10	=10	=10	=10	=10	=10	=10	=10	=10	=10	=10	=10	=10	=10	=10	=10
4C/	2ee/	4g\	.	4C/	.	o-	o-	4g/	.	o-	o-	4ee\	.	o-	o-
4BB/	.	4g#X\	.	4BB/	.	-kiem	-kiem	4g#X/	.	-kiem	-kiem	4ee\	.	-kiem	-kiem
4C/	2ryy	4a\	.	4C/	.	u-	u-	4a/	.	u-	u-	4ee\	.	u-	u-
4AA/	.	4cc\	.	4AA/	.	-ta-	-ta-	4cc/	.	-ta-	-ta-	4ee\	.	-ta-	-ta-
*	*v	*v	*	*	*	*	*	*	*	*	*	*	*	*	*
!	!	!	!LO:LB:g=original	!	!	!	!	!	!	!	!	!	!	!
=11	=11	=11	=11	=11	=11	=11	=11	=11	=11	=11	=11	=11	=11	=11
!	!	!	!	!	!	!	!	!	!	!	!LO:SIC:s=(4dd\:v	!	!	!
1D	4dd\ 4b\	.	1D	.	-jo-	-jo-	(>4b\	.	-jo-	-jo-	4dd\	.	-jo-	-jo-
.	4cc\ 4a\	.	.	.	.	.	4a\	.	.	.	4cc\	.	.	.
.	4b\ 4gn\	.	.	.	.	.	4gn\	.	.	.	4b\	.	.	.
!	!	!	!	!	!	!	!	!	!	!	!LO:SIC:s=4a\):v	!	!	!
.	4a\ 4f#\	.	.	.	.	.	4f#\)	.	.	.	4a\	.	.	.
=12	=12	=12	=12	=12	=12	=12	=12	=12	=12	=12	=12	=12	=12	=12
4G\	(<8g/L	.	4E\	.	-ny	-ny,	4g/	.	-ny	-ny,	4g/	.	-ny	-ny,
.	8d/	.	.	.	.	.	.	.	.	.	.	.	.	.
4r	8B/	.	4r	.	.	.	4r	.	.	.	4r	.	.	.
.	8c/J)	.	.	.	.	.	.	.	.	.	.	.	.	.
2r	8d/L	.	2r	.	.	.	2r	.	.	.	8r	.	.	.
.	8g/	.	.	.	.	.	.	.	.	.	8g/	.	pod	pod
.	8a/	.	.	.	.	.	.	.	.	.	8a/	.	po-	po-
.	8g/J	.	.	.	.	.	.	.	.	.	8g/	.	-sta-	-sta-
=13	=13	=13	=13	=13	=13	=13	=13	=13	=13	=13	=13	=13	=13	=13
*^	*	*	*	*	*	*	*	*	*	*	*	*	*	*
8r	2rEEyy	[<2dd/	.	2r	.	.	.	8r	.	.	.	2dd\	.	-cia-	-cia-
8G\L	.	.	.	.	.	.	.	8g/	.	Pod	pod	.	.	.	.
8A\	.	.	.	.	.	.	.	8a/	.	pos-	po-	.	.	.	.
8G\J	.	.	.	.	.	.	.	8g/	.	-ta-	-sta-	.	.	.	.
!	!	!LO:MO:mod=!LO&colon;TX&colon;a&colon;i&colon;t=Mano destra	!	!	!	!	!	!	!	!	!	!	!	!	!
!	!	!LO:TX:a:i:t=mono destra	!	!	!	!	!	!	!	!	!	!	!	!	!
!	!	!	!	!	!	!	!	!	!	!	!	!LO:SIC:s=(8dd\L:v	!	!	!
8rGG	2d\	8dd/L]	.	8r	.	.	.	4.dd\	.	-cia-	-cia-	8dd\L	.	-mi	-mi
8GG/L	.	8b/	.	8GG/	.	pod	pod	.	.	.	.	8b\	.	.	.
!	!	!	!	!	!	!	!	!	!	!	!	!LO:SIC:s=8cc\J):v	!	!	!
8AA/	.	8b/	.	8AA/	.	pos-	po-	.	.	.	.	8cc\J	.	.	.
!	!	!	!	!	!	!	!	!	!	!	!	!LO:SIC:s=(8b\:v	!	!	!
8GG/J	.	8b/J	.	8GG/	.	-ta-	-sta-	8dd\	.	-mi	-mi	8b\	.	wi-	wi-
*v	*v	*	*	*	*	*	*	*	*	*	*	*	*	*	*
!	!	!	!	!	!	!	!LO:LB:g=original	!	!	!	!	!	!	!
=14	=14	=14	=14	=14	=14	=14	=14	=14	=14	=14	=14	=14	=14	=14
*	*^	*	*	*	*	*	*	*	*	*	*	*	*	*
!	!	!	!	!	!	!	!	!	!	!	!	!LO:SIC:s=2.cc\):v	!	!	!
!	!	!	!	!	!	!	!	!LO:SIC:s=(4f#/:v	!	!	!	!	!	!	!
4D\	2cc/	4f#\	.	4D\	.	-cia-	-cia-	4f#/	.	wi-	wi-	2.cc\	.	.	.
!	!	!	!	!	!	!	!	!LO:SIC:s=<4g/:v	!	!	!	!	!	!	!
4E\	.	4g\	.	4E\	.	-mi	-mi	(<4g/	.	.	.	.	.	.	.
8F#\L	2ryy	8a\L	.	(>8F#\L	.	wi-	wi-	8a/L	.	.	.	.	.	.	.
8D\	.	8f#\	.	8D\J)	.	.	.	8f#/J)	.	.	.	.	.	.	.
8E\	.	8g\	.	8E\	.	-na	-na	8g/	.	-na	-na	8cc\	.	-na	-na
8F#\J	.	8a\J	.	8F#\	.	i	i	8a/	.	i	i	8cc\	.	i	i
!	!	!	!	!	!	!	!	!	!	!	!	!LO:LB:g=original	!	!	!
=15	=15	=15	=15	=15	=15	=15	=15	=15	=15	=15	=15	=15	=15	=15	=15
!	!	!	!	!	!	!	!	!	!	!	!	!LO:SIC:s=(2b\:v	!	!	!
4G\	2b/	2g\	.	(>4G\	.	chle-	chle-	(<2g/	.	chle-	chle-	2b\	.	chle-	chle-
4GG/	.	.	.	4GG/	.	.	.	.	.	.	.	.	.	.	.
4AA/	4a/ 4f#/	4ryy	.	4AA/	.	.	.	4f#/	.	.	.	4a\	.	.	.
!	!	!	!	!	!	!	!	!	!	!	!	!LO:SIC:s=4g/):v	!	!	!
4AA#X/	4g/ 4e/	4ryy	.	4AA#X/)	.	.	.	4e/)	.	.	.	4g/	.	.	.
*	*v	*v	*	*	*	*	*	*	*	*	*	*	*	*	*
=16	=16	=16	=16	=16	=16	=16	=16	=16	=16	=16	=16	=16	=16	=16
4BB/	(<8f#/L 8d#X/	.	4BB/	.	-ba	-ba	4d#X/	.	-ba	-ba	4f#/	.	-ba	-ba
.	8b/	.	.	.	.	.	.	.	.	.	.	.	.	.
4r	8cc/	.	4r	.	.	.	4r	.	.	.	4r	.	.	.
.	8b/J)	.	.	.	.	.	.	.	.	.	.	.	.	.
2r	8a#X/L	.	2r	.	.	.	2r	.	.	.	2r	.	.	.
.	8b/	.	.	.	.	.	.	.	.	.	.	.	.	.
.	8an/	.	.	.	.	.	.	.	.	.	.	.	.	.
.	8f#/J	.	.	.	.	.	.	.	.	.	.	.	.	.
!LO:PB:g=original	!LO:PB:g=original	!	!LO:LB:g=original	!	!	!	!	!	!	!	!	!	!	!
=17	=17	=17	=17	=17	=17	=17	=17	=17	=17	=17	=17	=17	=17	=17
*	*^	*	*	*	*	*	*	*	*	*	*	*	*	*
!	!	!	!	!	!LO:DY:a:rj	!	!	!	!LO:DY:a:rj	!	!	!	!LO:DY:a:rj	!	!
[>1E [<1EE	4b/	2g\	p	2E\	p	Bog	Bóg	2g/	p	Bog	Bóg	(>4b\	p	Bog	Bóg
.	4ee/	.	.	.	.	.	.	.	.	.	.	4ee\)	.	.	.
.	4dd\ 4b\	4ryy	.	4E\	.	ztą-	zstą-	4b/	.	ztą-	zstą-	4dd\	.	ztą-	zstą-
.	4cc\ 4a\	4ryy	.	4E\	.	-pił	-pił	4a/	.	-pił	-pił	4cc\	.	-pił	-pił
*	*v	*v	*	*	*	*	*	*	*	*	*	*	*	*	*
=18	=18	=18	=18	=18	=18	=18	=18	=18	=18	=18	=18	=18	=18	=18
1E] 1EE]	1b 1g	.	2.E\	.	z Nie-	z nie-	2.g/	.	z Nie-	z nie-	2.b\	.	z Nie-	z nie-
.	.	.	4E\	.	-ba	-ba,	4g/	.	-ba	-ba,	4b\	.	-ba	-ba,
=19	=19	=19	=19	=19	=19	=19	=19	=19	=19	=19	=19	=19	=19	=19
1BB	4b\ 4g\	.	2BB/	.	Bog	Bóg	(<4g/	.	Bog	Bóg	(<4b/	.	Bog	Bóg
.	4a\ 4f#\	.	.	.	.	.	4f#/)	.	.	.	4a/)	.	.	.
.	4g\ 4e\	.	4BB/	.	stą-	zstą-	4e/	.	ztą-	zstą-	4g/	.	ztą-	zstą-
.	4f#\ 4d#X\	.	4BB/	.	-pił	-pił	4d#X/	.	-pił	-pił	4f#/	.	-pił	-pił
!	!	!	!	!	!	!	!LO:LB:g=original	!	!	!	!	!	!	!
=20	=20	=20	=20	=20	=20	=20	=20	=20	=20	=20	=20	=20	=20	=20
!	!LO:SIC:s=2f#/ 2d#/:v	!	!	!	!	!	!LO:SIC:s=2d#/:v	!	!	!	!	!	!	!
2BB/	2f#/ 2d/	.	2BB/	.	z Nie-	z nie-	2d/	.	z Nie-	z nie-	2f#/	.	z Nie-	z nie-
4E\	4e/	.	4E\	.	-ba	-ba.	4e/	.	-ba	-ba.	4e/	.	-ba	-ba.
4r	4r	.	4r	.	.	.	4r	.	.	.	4r	.	.	.
=21	=21	=21	=21	=21	=21	=21	=21	=21	=21	=21	=21	=21	=21	=21
!	!LO:N:vis=1	!	!	!	!	!	!	!	!	!	!	!	!	!
!	!	!	!	!	!	!	!LO:SIC:s=2d#/:v	!	!	!	!	!	!	!
2BB/	2f# 2d#X 2A\	.	2BB/	.	a-	A-	2d/	.	a-	A-	2f#/	.	a-	A-
4E\	4e/ 4G/	.	4E\	.	-men	-men,	4e/	.	-(men)	-(men),	4e/	.	-(men)	-(men),
4r	4r	.	4r	.	.	.	4r	.	.	.	4r	.	.	.
=22	=22	=22	=22	=22	=22	=22	=22	=22	=22	=22	=22	=22	=22	=22
!	!	!	!	!	!	!	!LO:SIC:s=2d#/:v	!	!	!	!	!	!	!
2BB/	2b/ 2f#/ 2d#X/ 2B/	.	2BB/	.	a-	a-	2d/	.	a-	a-	2b\	.	a-	a-
4E\	4e/	.	4E\	.	-(men)	-(men).	4e/	.	-(men)	-(men).	4e/	.	-(men)	-(men).
4ryy	4r	.	4r	.	.	.	4r	.	.	.	4r	.	.	.
==	==	==	==	==	==	==	==	==	==	==	==	==	==	==
*-	*-	*-	*-	*-	*-	*-	*-	*-	*-	*-	*-	*-	*-	*-
!!!system-decoration: [(g1)]{(s4,s5)}
!!!RDF**kern: > = above
!!!RDF**kern: < = below
!!!filter-modern: tie -s | humtr -p | sic -sq | shed -e "s/LO:DY:(a|b|rj)/LO:dy:$1/L" | shed -e "s/TX(.*):t=P:/tx$1:t=P:/LG" | modori -m | autostem -r | shed -e "s/yy//" | shed -k -e "s/\(y([^y])/($1/" | shed -e "s/-//B" | shed -e "s/^(\d+[\/\\]right)/$1yy/I; s/^(\d+[\/\\]left)/$1yy/I" | shed -e "s/^(X?)rep$/$1REP/I" | shed -k -e "s/[<>]//g" | shed -e "s/^custos:/Xcustos:/I" | shed -k -e "s/:TUP:/:tup:/L" | rid -lid
!!!ENC: Tomasz Grochalski
!!!END: 2020-08-31
!!!EED: Jędrzej Mróz
!!!ESR: 2021-11-08
!!!EED-modern: Antoni Szymański
!!!END-modern: 2022-07-05
!!!YEC: Copyright 2022 Narodowy Instytut Fryderyka Chopina (https://polishscores.org)
!!!YEM: License CC-BY-4.0 (https://creativecommons.org/licenses/by/4.0)
